src/assets/icon/company/FCG.svg

<svg width="200" height="80" viewBox="0 0 200 80" fill="none" xmlns="http://www.w3.org/2000/svg">
<path fill-rule="evenodd" clip-rule="evenodd" d="M128.39 44.7937C126.592 44.9051 124.842 45.0006 123.092 45.0961C122.845 45.1087 122.6 45.1164 122.355 45.124L122.355 45.124C121.987 45.1355 121.619 45.1469 121.246 45.1756C120.737 45.2074 120.419 44.9847 120.387 44.4914C120.355 43.5208 120.339 42.5502 120.371 41.5796C120.387 41.0864 120.673 40.8159 121.214 40.784C122.407 40.7204 123.596 40.6528 124.785 40.5852L124.786 40.5851L124.788 40.585C125.977 40.5174 127.166 40.4499 128.359 40.3862C129.647 40.3067 130.936 40.2431 132.224 40.1794L132.225 40.1794C132.306 40.1763 132.387 40.1726 132.468 40.1689C132.805 40.1535 133.149 40.1379 133.482 40.1635C134.357 40.2112 134.58 40.4499 134.564 41.3091C134.548 42.7844 134.534 44.2597 134.52 45.7344L134.52 45.7394C134.492 48.7006 134.463 51.6594 134.421 54.6111C134.405 55.8363 134.119 56.3137 132.957 56.3773C130.712 56.5094 128.661 57.2901 126.615 58.0692C125.456 58.5104 124.299 58.9511 123.108 59.2732C115.661 61.294 109.042 59.8938 103.744 54.0702C99.9884 49.9491 98.6677 44.921 99.4474 39.4475C100.609 31.3167 105.462 25.9863 112.781 22.7245C117.793 20.4968 123.124 19.8763 128.565 20.0195C129.313 20.0354 130.077 20.115 130.825 20.1945C131.716 20.29 132.002 20.6719 131.875 21.5629C131.78 22.3108 131.652 23.0586 131.525 23.8064C131.366 24.6816 131.111 24.9362 130.204 24.9202C129.682 24.9202 129.159 24.888 128.636 24.8557C128.189 24.828 127.741 24.8003 127.293 24.793C122.885 24.7452 118.509 25.1271 114.547 27.2592C108.231 30.6643 104.937 36.0106 105.207 43.2503C105.494 50.7765 111.731 56.25 119.257 55.8363C122.376 55.6613 125.256 54.7384 127.929 53.1473C128.12 53.0359 128.327 52.7813 128.327 52.5745C128.375 50.0929 128.39 47.6113 128.406 45.1297V45.1279C128.43 45.058 128.419 44.9881 128.405 44.8995C128.402 44.8803 128.399 44.8603 128.396 44.8392C128.394 44.8246 128.392 44.8094 128.39 44.7937ZM79.9108 60.4227L79.9114 60.4228L79.912 60.4229C80.1115 60.4641 80.3115 60.5054 80.5136 60.5447C81.3887 60.5447 82.2638 60.5447 83.1071 60.5765C83.1486 60.5627 83.1887 60.5475 83.2282 60.5326L83.2284 60.5325C83.3254 60.4959 83.4191 60.4605 83.5208 60.4492C85.828 60.2742 88.1034 59.8764 90.2514 59.0012C91.7948 58.3807 93.2905 57.6328 94.7385 56.8054C95.7727 56.2167 95.8682 55.5166 95.3113 54.4824C95.1681 54.2119 95.0249 53.9573 94.8658 53.7027C94.7806 53.5743 94.7035 53.4562 94.633 53.3482C94.2565 52.7714 94.0663 52.48 93.8203 52.421C93.5692 52.3606 93.2598 52.5424 92.6347 52.9098C92.5515 52.9587 92.4627 53.0109 92.3677 53.0662C89.5672 54.6892 86.6077 55.6598 83.3299 55.7235C78.0632 55.8189 74.1171 53.5118 71.5713 48.9929C69.0732 44.5536 69.28 39.8915 71.3644 35.3885C74.2922 29.0876 79.5907 26.0485 86.2735 25.2688C88.0154 25.062 89.7722 25.0488 91.5285 25.0356H91.5286C92.3392 25.0295 93.1498 25.0234 93.9588 24.9983C94.2929 24.9983 94.643 24.9983 94.9612 24.9347C95.6136 24.7915 95.8205 24.505 95.7886 23.8368C95.7409 23.073 95.6772 22.3252 95.5818 21.5773C95.4704 20.6545 95.359 20.5113 94.4043 20.4476C93.0678 20.3521 91.7471 20.3203 90.4105 20.3203C85.5575 20.3362 80.8636 21.1795 76.4402 23.1844C68.739 26.669 64.252 32.5404 63.6473 41.1008C62.995 50.4408 69.5346 58.6353 78.811 60.2105C79.1813 60.2722 79.5449 60.3472 79.9105 60.4226L79.9106 60.4227L79.9108 60.4227ZM160.789 48.9697L160.789 48.969L160.789 48.9685C160.805 48.9289 160.82 48.8897 160.835 48.851V47.2917C160.827 47.2668 160.819 47.2419 160.811 47.217C160.799 47.1782 160.786 47.1394 160.773 47.1006C160.711 46.9097 160.648 46.7188 160.612 46.5279C159.801 42.3273 155.759 39.3995 151.622 40.0519C147.183 40.752 144.239 44.539 144.701 48.9146C145.115 52.7811 148.392 55.8839 152.227 56.0271C156.38 56.1703 159.88 53.4494 160.612 49.4875C160.651 49.3197 160.721 49.1415 160.789 48.9697ZM44.6327 41.5961V40.8641C44.6709 40.8614 44.7076 40.8587 44.7433 40.856C44.9159 40.8432 45.0632 40.8323 45.2214 40.8323C47.0592 40.7766 48.897 40.7249 50.7348 40.6732C52.5725 40.6215 54.4103 40.5698 56.2481 40.5141C56.5186 40.5141 56.805 40.4982 57.0755 40.4663C57.521 40.4186 57.7597 40.1958 57.7279 39.7185C57.704 39.3048 57.6921 38.8871 57.6801 38.4694C57.6682 38.0517 57.6563 37.6341 57.6324 37.2204C57.5847 36.202 57.3778 35.9952 56.3595 35.8997C56.1844 35.8838 55.9935 35.8679 55.8185 35.8838C52.9067 36.027 50.0108 36.1702 47.1149 36.3134C46.4523 36.3524 45.7897 36.402 45.1011 36.4535C44.9464 36.4651 44.7903 36.4768 44.6327 36.4885C44.5531 32.797 44.4895 29.1691 44.4258 25.5095C44.5077 25.5027 44.5807 25.4929 44.6475 25.484C44.7366 25.4722 44.8145 25.4618 44.8873 25.4618C45.8154 25.4344 46.7445 25.406 47.6741 25.3776C50.5215 25.2906 53.3734 25.2035 56.2163 25.1435C57.198 25.1254 58.1849 25.1279 59.174 25.1305C59.9163 25.1325 60.6599 25.1344 61.4034 25.1276C62.1513 25.1276 62.2786 25.0003 62.2945 24.2684C62.3104 23.4887 62.3104 22.725 62.2945 21.9453C62.2627 20.7679 62.0876 20.561 60.9261 20.5928C54.1955 20.7679 47.449 20.9747 40.7184 21.1816C39.5251 21.2134 39.2705 21.4998 39.1114 22.6613C39.1011 22.7436 39.0901 22.8251 39.0791 22.9062C39.0392 23.2016 39 23.4914 39 23.7911C39.0159 35.1996 39.0477 46.6241 39.0955 58.0327C39.0955 58.9237 39.3819 59.226 40.2888 59.2101C41.4822 59.1942 42.6597 59.1306 43.853 59.0192C44.6804 58.9396 44.7441 58.8441 44.7441 58.0008C44.7281 55.2641 44.7083 52.5313 44.6884 49.7986C44.6685 47.0657 44.6486 44.3329 44.6327 41.5961Z" fill="white"/>
</svg>

<svg width="200" height="80" fill="none" xmlns="http://www.w3.org/2000/svg"><path fill-rule="evenodd" clip-rule="evenodd" d="M128.39 44.794c-1.798.111-3.548.207-5.298.302-.247.013-.492.02-.737.028-.368.011-.736.023-1.109.052-.509.031-.827-.191-.859-.685a44.173 44.173 0 0 1-.016-2.911c.016-.494.302-.764.843-.796 1.193-.064 2.382-.131 3.571-.199h.003c1.189-.068 2.378-.135 3.571-.199 1.288-.08 2.577-.143 3.865-.207h.001l.243-.01a8.372 8.372 0 0 1 1.014-.005c.875.047 1.098.286 1.082 1.145-.016 1.475-.03 2.95-.044 4.425v.005c-.028 2.962-.057 5.92-.099 8.872-.016 1.225-.302 1.703-1.464 1.766-2.245.132-4.296.913-6.342 1.692-1.159.441-2.316.882-3.507 1.204-7.447 2.021-14.066.62-19.364-5.203-3.756-4.12-5.076-9.149-4.297-14.623 1.162-8.13 6.015-13.46 13.334-16.723 5.012-2.227 10.343-2.848 15.784-2.704.748.015 1.512.095 2.26.175.891.095 1.177.477 1.05 1.368-.095.748-.223 1.496-.35 2.243-.159.876-.414 1.13-1.321 1.114-.522 0-1.045-.032-1.568-.064a29.504 29.504 0 0 0-1.343-.063c-4.408-.048-8.784.334-12.746 2.466-6.316 3.405-9.61 8.752-9.34 15.991.287 7.526 6.524 13 14.05 12.586 3.119-.175 5.999-1.098 8.672-2.689.191-.111.398-.366.398-.572.048-2.482.063-4.964.079-7.445v-.002a.464.464 0 0 0-.001-.228 4.415 4.415 0 0 1-.015-.106ZM79.91 60.423h.002l.602.122c.875 0 1.75 0 2.593.032.042-.014.082-.03.121-.044.097-.037.191-.072.293-.084 2.307-.175 4.582-.573 6.73-1.448a36.564 36.564 0 0 0 4.487-2.196c1.035-.588 1.13-1.288.573-2.323-.143-.27-.286-.525-.445-.78a54.926 54.926 0 0 1-.233-.354c-.376-.577-.567-.868-.813-.927-.25-.06-.56.121-1.185.489l-.267.156c-2.8 1.623-5.76 2.594-9.038 2.657-5.267.096-9.213-2.211-11.759-6.73-2.498-4.44-2.291-9.102-.207-13.605 2.928-6.3 8.227-9.34 14.91-10.12 1.741-.206 3.498-.22 5.254-.232.811-.007 1.622-.013 2.43-.038.335 0 .685 0 1.003-.063.653-.143.86-.43.828-1.098a35.065 35.065 0 0 0-.207-2.26c-.112-.923-.223-1.066-1.178-1.13a55.774 55.774 0 0 0-3.993-.127c-4.853.016-9.547.86-13.97 2.864-7.702 3.485-12.189 9.356-12.794 17.917-.652 9.34 5.888 17.534 15.164 19.11.37.061.734.136 1.1.212ZM160.79 48.97v-.001l.046-.118v-1.56l-.024-.074-.038-.116c-.062-.191-.125-.382-.161-.573-.811-4.2-4.853-7.128-8.99-6.476-4.439.7-7.383 4.487-6.921 8.863.414 3.866 3.691 6.969 7.526 7.112 4.153.143 7.653-2.578 8.385-6.54.039-.167.109-.346.177-.517ZM44.633 41.596v-.732l.11-.008c.173-.013.32-.024.478-.024 1.838-.055 3.676-.107 5.514-.159 1.837-.052 3.675-.103 5.513-.159.27 0 .557-.016.828-.048.445-.047.684-.27.652-.748-.024-.413-.036-.83-.048-1.249a42.884 42.884 0 0 0-.048-1.249c-.047-1.018-.254-1.225-1.273-1.32a3.078 3.078 0 0 0-.54-.016l-8.704.43c-.663.038-1.325.088-2.014.14l-.468.035c-.08-3.692-.144-7.32-.207-10.98.082-.006.155-.016.221-.025.09-.012.168-.022.24-.022l2.787-.084c2.848-.087 5.7-.175 8.542-.235.982-.018 1.969-.015 2.958-.012.742.002 1.486.003 2.23-.003.747 0 .875-.128.89-.86.016-.78.016-1.543 0-2.323-.031-1.177-.206-1.384-1.368-1.352-6.73.175-13.477.382-20.208.589-1.193.031-1.448.318-1.607 1.48-.01.082-.02.163-.032.244-.04.296-.079.585-.079.885.016 11.409.048 22.833.096 34.242 0 .89.286 1.193 1.193 1.177 1.193-.016 2.37-.08 3.564-.19.827-.08.891-.176.891-1.02-.016-2.736-.036-5.469-.056-8.201-.02-2.733-.04-5.466-.055-8.203Z" fill="#fff"/></svg>
